X: 2
T: The Banshee
R: reel
M: 4/4
L: 1/8
K: Gmaj
G3D EDB,D|GFGB d2 Bd|eged BAGA|BAGE EDDE|G2 GD EDB,D|GFGB d2 Bd|eged BAGA|1 BAGE EDDE:|2 BAGE ED D2||eaag efge|dBBA B2 Bd|eB ~B2 gBfB|eBBA B2 Bd|eaag efge|dBBA B2 Bd|eged BAGA|1 BAGE EDD2:|2 BAGE EDDE||


Tune 8	Setting 8

